X:13579
T:Pride of Petravore
Z: id:dc-hornpipe-45
M:C|
L:1/8
K:E Minor
B,|E3F G3A|BcBA GFGE|D3E FDFG|ABAG FDDF|!
EDEF GFGA|BcBA GEFA|BABc BAFG|Eee^d e3:|!
B|e2e2 e2ge|dBGA B3c|B2FE FGAB|AGED EFGB|!
cdef gfge|dBGA B2GA|BABc BAFG|Eee^d e3:|!
